X: 161
T: NN
%%abc-version 2.0
%%abcx-abcm2ps-target-version 5.9.1 (29 Sep 2008)
%%abc-creator hum2abc beta
%%abcx-conversion-date 2013/10/02 07:44:27
%%abc-edited-by Helmut Schaffrath
%%humdrum-veritas 3425746442
%%humdrum-veritas-data 4269742574
%%continueall 1
%%barnumbers 0
L: 1/16
M: 2/4
K: C
d2> e2 d2 c2 [I:setbarnb 1]| 
c2A6 | 
B2> B2 G2 E G | 
A8 | 
A2 d d c2 A A | 
G2E6 | 
G E G A2< E2 D | 
C2 A CD4 |]  



